src/assets/images/visa.svg

<?xml version="1.0" encoding="UTF-8"?>
<svg width="202px" height="66px" viewBox="0 0 202 66" version="1.1" xmlns="http://www.w3.org/2000/svg" xmlns:xlink="http://www.w3.org/1999/xlink">
    <!-- Generator: Sketch 56.3 (81716) - https://sketch.com -->
    <title>Visa_2014_logo_detail</title>
    <desc>Created with Sketch.</desc>
    <defs>
        <path d="M104.51884,44.87 C104.4037,35.882 112.60894,30.866 118.79014,27.884 C125.14102,24.824 127.27414,22.862 127.2499,20.126 C127.20142,15.938 122.18374,14.09 117.48724,14.018 C109.29412,13.892 104.53096,16.208 100.74346,17.96 L97.79224,4.286 C101.59186,2.552 108.62752,1.04 115.92376,0.974 C133.04932,0.974 144.25426,9.344 144.31486,22.322 C144.38152,38.792 121.30504,39.704 121.4626,47.066 C121.51714,49.298 123.66844,51.68 128.38312,52.286 C130.71622,52.592 137.158,52.826 144.4603,49.496 L147.32668,62.726 C143.3998,64.142 138.35182,65.498 132.0676,65.498 C115.948,65.498 104.60974,57.014 104.51884,44.87 M174.86938,64.358 C171.74242,64.358 169.10632,62.552 167.93068,59.78 L143.46646,1.946 L160.5799,1.946 L163.98562,11.264 L184.89868,11.264 L186.87424,1.946 L201.95758,1.946 L188.79526,64.358 L174.86938,64.358 M177.26308,47.498 L182.20198,24.062 L168.67606,24.062 L177.26308,47.498 M83.7694,64.358 L70.27984,1.946 L86.5873,1.946 L100.0708,64.358 L83.7694,64.358 M59.64454,64.358 L42.67048,21.878 L35.8045,57.998 C34.99852,62.03 31.81702,64.358 28.28404,64.358 L0.5353,64.358 L0.14746,62.546 C5.84386,61.322 12.31594,59.348 16.23676,57.236 C18.63652,55.946 19.3213,54.818 20.1091,51.752 L33.11386,1.946 L50.3485,1.946 L76.7701,64.358 L59.64454,64.358" id="path-1"></path>
        <linearGradient x1="16.1481739%" y1="40.1328614%" x2="85.8318643%" y2="60.3411825%" id="linearGradient-3">
            <stop stop-color="#222357" offset="0%"></stop>
            <stop stop-color="#254AA5" offset="100%"></stop>
        </linearGradient>
    </defs>
    <g id="Page-1" stroke="none" stroke-width="1" fill="none" fill-rule="evenodd">
        <g id="Visa_2014_logo_detail" transform="translate(0.000000, 0.000000)">
            <g id="g10267" transform="translate(101.000000, 33.000000) scale(-1, 1) rotate(-180.000000) translate(-101.000000, -33.000000) translate(-0.000000, 0.000000)">
                <g id="g10269-Clipped">
                    <mask id="mask-2" fill="white">
                        <use xlink:href="#path-1"></use>
                    </mask>
                    <g id="path10273"></g>
                    <g id="g10269" mask="url(#mask-2)">
                        <g transform="translate(-21.078757, -64.862069)" id="g10275">
                            <g transform="translate(0.092977, 0.654069)">
                                <polyline id="path10283" fill="url(#linearGradient-3)" fill-rule="nonzero" points="0 122 198.84274 194.504 244.07862 72.886 45.2379 0.382"></polyline>
                            </g>
                        </g>
                    </g>
                </g>
            </g>
        </g>
    </g>
</svg>

<svg xmlns="http://www.w3.org/2000/svg" xmlns:xlink="http://www.w3.org/1999/xlink" width="202" height="66"><defs><path d="M104.52 44.87c-.115-8.988 8.1-14.004 14.27-16.986 6.35-3.06 8.484-5.022 8.46-7.758-.048-4.188-5.066-6.036-9.763-6.108-8.193-.126-12.956 2.2-16.744 3.942l-2.95-13.674c3.8-1.734 10.835-3.246 18.132-3.312 17.126 0 28.33 8.37 28.39 21.348.067 16.47-23 17.382-22.852 24.744.055 2.232 2.206 4.614 6.92 5.22 2.333.306 8.775.54 16.077-2.8l2.866 13.23c-3.927 1.416-8.975 2.772-15.26 2.772-16.12 0-27.458-8.484-27.55-20.628m70.35 19.488a7.43 7.43 0 0 1-6.939-4.578L143.466 1.946h17.113l3.406 9.318H184.9l1.976-9.318h15.083l-13.162 62.412H174.87m2.394-16.86l4.94-23.436h-13.526l8.587 23.436M83.77 64.358L70.28 1.946h16.307l13.484 62.412h-16.3m-24.125 0L42.67 21.878l-6.866 36.12c-.806 4.032-3.987 6.36-7.52 6.36H.535l-.388-1.812c5.696-1.224 12.168-3.198 16.09-5.3 2.4-1.3 3.085-2.418 3.872-5.484L33.114 1.946H50.35L76.77 64.358H59.645" id="A"/><linearGradient x1="16.1481739%" y1="40.1328614%" x2="85.8318643%" y2="60.3411825%" id="B"><stop stop-color="#222357" offset="0%"/><stop stop-color="#254aa5" offset="100%"/></linearGradient></defs><g transform="matrix(1 0 0 -1 0 66)" fill="none" fill-rule="evenodd"><mask id="C" fill="#fff"><use xlink:href="#A"/></mask><g mask="url(#C)"><path fill="url(#B)" fill-rule="nonzero" d="M-20.986 57.792l198.843 72.504L223.093 8.678 24.252-63.826"/></g></g></svg>
